X: 7913
T: Concert, The
R: reel
M: 4/4
K: Adorian
|:A2GB AE~E2|GABG ~A3B|dBAB GFGB|d2eB dBAc|
BAGB AE~E2|GABG ABcd|ea~a2 gedB|1 GBdB BAdB:|2 GBdB BAA2||
|:ea~a2 bgag|edef gedB|degb a2ga|bgab ged2|
ea~a2 ea~a2|edef gedB|gfge d2ge|1 dBGA BAA2:|2 dBGA BAdB||

